dist/icons/svgs/caret-up-outline.svg

<svg xmlns="http://www.w3.org/2000/svg" width="24" height="24" fill="currentcolor" class="icon-caret-up-outline" viewBox="0 0 24 24">
  <path d="M12.4999 9.14844L8.98423 12.625H15.9764L12.4999 9.14844ZM11.6014 7.39062C12.0702 6.88281 12.8905 6.88281 13.3592 7.39062L18.3592 12.3906C18.7108 12.7422 18.828 13.2891 18.6327 13.7578C18.4374 14.2266 18.0077 14.5 17.4999 14.5H7.49985C6.99204 14.5 6.52329 14.2266 6.32798 13.7578C6.13266 13.2891 6.24985 12.7422 6.60141 12.3906L11.6014 7.39062Z"/>
</svg>

<svg xmlns="http://www.w3.org/2000/svg" width="24" height="24" fill="currentColor" class="icon-caret-up-outline" viewBox="0 0 24 24">
  <path d="m12.5 9.148-3.516 3.477h6.992zm-.9-1.757a1.205 1.205 0 0 1 1.758 0l5 5c.352.351.469.898.274 1.367a1.19 1.19 0 0 1-1.133.742h-10c-.508 0-.977-.273-1.172-.742a1.26 1.26 0 0 1 .273-1.367z"/>
</svg>
